X:1
T:Title
%%score { ( 1 3 ) | ( 2 4 ) }
L:1/8
Q:1/4=108
M:4/4
K:F
V:1 treble nm="Grand Piano"
V:3 treble 
V:2 bass 
V:4 bass 
V:1
 [DF]4 [DF]2 [DF]2 | [C_EF]3 [CEG] [B,DF]4 | [B,FB]4 [Fd]2 [Ec]2 | c6 ^c2 | d4 d2 c2 | %5
w: Adam~Geibel * *|||||
 c2 B2 [CA]2 G2 | [A,CF]4 [B,EG]2 [CEA]2 | [B,EG]4 F2 z2 | c4 c2 ^c2 | [Fd]3 [E^c] [Fd]4 | %10
w: |||||
 [G_e]4 [GB]2 [^Fe]2 | [Fd]3 [E^c] [Fd]4 | f4 B2 B2 | [Gc]3 [GB] [FA]2 G2 | F2 F2 G2 A2 | %15
w: |||||
 [DB]6 z2 |] %16
w: |
V:2
 [B,,B,]4 [B,,B,]2 [B,,B,]2 | A,,3 A,, B,,4 | D,4 [B,,B,]2 [C,B,]2 | [F,A,F]8 | %4
 [B,F]4 [A,C^F]2 [A,DF]2 | [G,DG]2 [G,DG]2[K:bass] z2 B,2 | C,4 C,2 C,2 | F,4 [F,A,]2 z2 | %8
 [F,A,F]4 [F,A,F]2 [F,A,F]2 | [B,,B,]3 [B,,B,] [B,,B,]4 | [_E,B,]4 [E,B,]2 [E,B,]2 | %11
 [B,,B,]3 [B,,B,] [B,,B,]4 | [B,D_A]4 [B,DA]2 [B,DA]2 | [_E,_E]3 [E,E] z2 E2 | %14
 [B,D]2 D2 [F,^CE]2 [F,=C_E]2 | [B,,B,]6 z2 |] %16
V:3
 x8 | x8 | x8 | x8 | x8 | z4 D4 | x8 | x8 | x8 | x8 | x8 | x8 | x8 | x8 | x8 | x8 |] %16
V:4
 x8 | x8 | x8 | x8 | x8 | z4[K:bass] B,,4 | x8 | x8 | x8 | x8 | x8 | x8 | x8 | z4 [_E,B,]4 | %14
 F,4 z4 | x8 |] %16

